X: 10221
T: SALEM CADET'S MARCH
C:
%R: march
B: Elias Howe "The Musician's Companion" Part 1 1842 p.22,23 #1
S: http://imslp.org/wiki/The_Musician's_Companion_(Howe,_Elias)
Z: 2015 John Chambers <jc:trillian.mit.edu>
M: C
L: 1/8
K: G
% - - - - - - - - - - - - - - - - - - - - - - - - -
V: 1 staves=3
de/f/ |\
g2g>g d2d>d | B2B>B G2z2 |\
d2d>e defg | f2e2 d2A>B |\
c3B cBcA | B2d2 gdBG |\
c3B cBcA | BGBd g2z2 |
G2G>G G2A>F | G2B>B B2c>A |\
.B.d.d.d .d.B.d.d | e2e>e e2de/f/ |\
g>g d>B G>G B>G | d2d>d d2z2 ::\
a2a>g f2f>e |
d2d>d d2z2 |\
d2d>c B2B>A | G2G>G G2AB |\
c2e>e e2dc | B2d>d d2cB |\
A>A B>B c>c B>B | A2A>A A2z2 |\
c3B cBcA | B2d2 cBAG |
c3B cBcA | BGBd g2z2 |\
G2G>G G2AF | G2B>B B2cA |\
.B.d.d.d .d.B.d.d | e2e>e e2z2 |\
d3e d2c2 | Bcde defg |\
d>c B>e d>c B>A | G2G>G G2z2 :|
% - - - - - - - - - - - - - - - - - - - - - - - - -
V: 2
de/f/ |\
g2g>g d2d>d | B2B>B G2z2 |\
B2B>c BcAB | A2G2 F2F>G |\
A3G AGAF | G2B2 B2z2 |\
A3G AGAF | G2G>G G2z2 |
B,2B,>B, B,2C>A, | B,2G>G E2A>F |\
GBBB BGBB | c2c>c c2Bc |\
B>B d>B G>G B>G | F2F>F F2z2 ::\
f2f>e e2A>G |
F2F>F F2z2 |\
B2B>A G2D>C | B,2B,>B, B,2z2 |\
E2c>c c2BA | G2B>B B2AG |\
F>F G>G A>A G>G | F2F>F F2z2 |\
A3G AGAF | G2B2 AGFG |
A3G AGAF | G2G>G G2z2 |\
G2G>G G2AF | G2G>G G2AF |\
GBBB BGBB | c2c>c c2z2 |\
B3c B2A2 | GA Bc Bcde |\
B>A G>c B>A G>F | G2G>G G2z2 :|
% - - - - - - - - - - - - - - - - - - - - - - - - -
V: 3 clef=bass middle=d
de/f/ |\
g2g>g d2d>d | B2B>B G2z2 |\
g2z2 g2g2 | a2A2 d2z2 |\
d3d d2d2 | .g2.g2 .g2z2 |\
d3d d2d2 | e2g>g g2z2 |
g2g>g g2z2 | g2g>g g2z2 |\
g2g2 g2g2 | c2c>c c2z2 |\
g2d2 B2G2 | d2d>d d2z2 ::\
a2a2 A2A2 |
d2d>d d2z2 |\
d2d2 d2d2 | G2G>G G2z2 |\
c2c>c c2z2 | g2g>g g2z2 |\
d2g2 f2g2 | d2d>d d2z2 |\
d3d d2d2 | .g2.g2 .g2.g2 |
d3d d2d2 | g2g>g g2z2 |\
g2g>g g2z2 | g2g>g g2z2 |
.g2.a2 .g2.g2 | c2c>c c2z2 |\
g3g g2d2 | g2z2 g2z2 |\
g2z2 d2d2 | G2G>G G2z2 :|
% - - - - - - - - - - - - - - - - - - - - - - - - -


